X: 22518
T: Lady Ellen
R: reel
M: 4/4
K: Adorian
|:EAAG AAed|edBA AGed|GGdG ~G2 dG|edBA AGED|
EAAG A2 ed|edBA AGed|d ~e3 ~g3 e|1 dBBG ABAG:|2 dBBG ~A3 d||
|:eaag aaed|eaag a2 a/b/c'|bggf gga/b/c'|bggf geed|
eaag a2 ed|eaag a2 bc'|bggf gged|1 edBG ~A3 d:|2 edBG ABAG||

